svg/u1f6a4.svg

<svg viewBox="0 0 128 128" xmlns="http://www.w3.org/2000/svg">
  <g>
    <path d="M118,95.43l-7.74-2.88l-5.33-1.86l1.09-9.79c0.24-1.88,1.98-3.24,3.95-3.09l8.57,0.67 c2.04,0.16,3.57,1.87,3.41,3.83l-0.6,7.7c-0.11,1.35-0.68,3.52-1.72,4.44L118,95.43z" fill="#455A64"/>
    <g>
      <path d="M3.15,85.59c0,0,4.37,16.22,25.33,25.38C58.43,124.04,115.69,124,115.69,124s4.05-0.12,5-2.94 c-0.02-0.61,4.17-18.5,4.17-18.5S90.61,98.8,64,95.43S3.15,85.59,3.15,85.59z" fill="#F4511E"/>
      <path d="M122.21,96.37L97.05,82.5c0,0-37.57-1.55-61.3-1.99C18.9,80.19,8.45,82.79,3.8,84.32 c-0.86,0.28-0.81,1.55,0.07,1.75c8.22,1.92,31.98,7.36,45.04,9.33c14.71,2.22,67.63,6.8,75.94,7.15L122.21,96.37z" fill="#FFCA28"/>
      <path d="M78.47,110.47c-0.06,0.2,7.17-5.77,7.17-5.77c-49.02-1.64-73.01-12.22-73.01-12.22 s8.42,8.96,45.18,13.48c3.96,0.49,15.46,1.79,15.46,1.79l-5.49,5.63c11.46,2.51,53.42,4.59,53.42,4.59l1.63-6.56 C92.33,112.25,78.47,110.47,78.47,110.47z" fill="#A12524"/>
    </g>
    <path d="M114.61,76.54c5.02,0.24,7.35,3.11,7.16,4.37c-0.02,0.12-3.16,0.55-7.62,0.23 c-3.9-0.28-7.12-1.2-7.63-1.64C106.52,79.5,107.5,76.21,114.61,76.54z" fill="#82AEC0"/>
    <path d="M74.7,91.29l27.78,2.17c0.91,0.07,1.31-1.12,0.54-1.61L92.5,86.05c-0.85-0.47-1.79-0.74-2.75-0.78 l-23.73-1.2L74.7,91.29z" fill="#EF6C00"/>
    <polygon points="90.63,85.37 90.08,92.49 74.7,91.29 66.02,84.07 " fill="#BF360C"/>
    <path d="M47.14,81.09l9.23-5.88c0,0,12.44,4.78,18.65,12.85c1.23,1.6,3.53,5.1,1.7,4.66 c-4.49-1.09-13.8-3.77-18.37-5.84C49.97,83.07,47.14,81.09,47.14,81.09z" fill="#82AEC0"/>
    <path d="M44.44,81.66c0.12-0.4,3.46-1.15,3.46-1.15s11.58,8.41,29.84,11.27v1.55c0,0-13.67-1-22.43-5.06 C46.56,84.2,44.44,81.66,44.44,81.66z" fill="#FFCA28"/>
    <path d="M45.07,81.92c1.13-0.46,2.14-0.2,2.51,0.1c0.67,0.56,3.51,2.53,5.69,3.53 c2.8,1.28,3.47,3.93-2.95,2.09c-2.33-0.67-4.2-1.78-5.58-2.83C43.49,83.86,43.6,82.52,45.07,81.92z" fill="#FCE8B2"/>
    <path d="M51.06,82.39l10.01-5.03c0,0,3.39,1.75,4.47,2.54l-9.64,4.96C52.47,83.3,51.06,82.39,51.06,82.39z" fill="#94D1E0"/>
  </g>
</svg>

<svg viewBox="0 0 128 128" xmlns="http://www.w3.org/2000/svg">
  <defs/>
  <path d="M118,95.43 L110.26,92.55 L104.93,90.69 L106.02,80.9 C106.26,79.02 108,77.66 109.97,77.81 L118.54,78.48 C120.58,78.64 122.11,80.35 121.95,82.31 L121.35,90.01 C121.24,91.36 120.67,93.53 119.63,94.45 L118,95.43 Z" fill="#455A64"/>
  <path d="M3.15,85.59 C3.15,85.59 7.52,101.81 28.48,110.97 C58.43,124.04 115.69,124 115.69,124 C115.69,124 119.74,123.88 120.69,121.06 C120.67,120.45 124.86,102.56 124.86,102.56 C124.86,102.56 90.61,98.8 64,95.43 C37.39,92.06 3.15,85.59 3.15,85.59 Z" fill="#F4511E"/>
  <path d="M122.21,96.37 L97.05,82.5 C97.05,82.5 59.48,80.95 35.75,80.51 C18.9,80.19 8.45,82.79 3.8,84.32 C2.94,84.6 2.99,85.87 3.87,86.07 C12.09,87.99 35.85,93.43 48.91,95.4 C63.62,97.62 116.54,102.2 124.85,102.55 L122.21,96.37 Z" fill="#FFCA28"/>
  <path d="M78.47,110.47 C78.41,110.67 85.64,104.7 85.64,104.7 C36.62,103.06 12.63,92.48 12.63,92.48 C12.63,92.48 21.05,101.44 57.81,105.96 C61.77,106.45 73.27,107.75 73.27,107.75 L67.78,113.38 C79.24,115.89 121.2,117.97 121.2,117.97 L122.83,111.41 C92.33,112.25 78.47,110.47 78.47,110.47 Z" fill="#A12524"/>
  <path d="M114.61,76.54 C119.63,76.78 121.96,79.65 121.77,80.91 C121.75,81.03 118.61,81.46 114.15,81.14 C110.25,80.86 107.03,79.94 106.52,79.5 C106.52,79.5 107.5,76.21 114.61,76.54 Z" fill="#82AEC0"/>
  <path d="M74.7,91.29 L102.48,93.46 C103.39,93.53 103.79,92.34 103.02,91.85 L92.5,86.05 C91.65,85.58 90.71,85.31 89.75,85.27 L66.02,84.07 L74.7,91.29 Z" fill="#EF6C00"/>
  <path d="M90.63,85.37 L90.08,92.49 L74.7,91.29 L66.02,84.07 Z" fill="#BF360C"/>
  <path d="M47.14,81.09 L56.37,75.21 C56.37,75.21 68.81,79.99 75.02,88.06 C76.25,89.66 78.55,93.16 76.72,92.72 C72.23,91.63 62.92,88.95 58.35,86.88 C49.97,83.07 47.14,81.09 47.14,81.09 Z" fill="#82AEC0"/>
  <path d="M44.44,81.66 C44.56,81.26 47.9,80.51 47.9,80.51 C47.9,80.51 59.48,88.92 77.74,91.78 L77.74,93.33 C77.74,93.33 64.07,92.33 55.31,88.27 C46.56,84.2 44.44,81.66 44.44,81.66 Z" fill="#FFCA28"/>
  <path d="M45.07,81.92 C46.2,81.46 47.21,81.72 47.58,82.02 C48.25,82.58 51.09,84.55 53.27,85.55 C56.07,86.83 56.74,89.48 50.32,87.64 C47.99,86.97 46.12,85.86 44.74,84.81 C43.49,83.86 43.6,82.52 45.07,81.92 Z" fill="#FCE8B2"/>
  <path d="M51.06,82.39 L61.07,77.36 C61.07,77.36 64.46,79.11 65.54,79.9 L55.9,84.86 C52.47,83.3 51.06,82.39 51.06,82.39 Z" fill="#94D1E0"/>
</svg>
